assets/icon/fcore.svg

<svg height="26" width="26" xmlns="http://www.w3.org/2000/svg"><path d="M11.25 6.4l1.6-1.6L14 4.7l1.55.55 1.4-1.5-.1-.1-.2-.55V3l-.05-.15q-.3-1.3.15-1.85l.15-.25.3-.3.4-.25 1.35-.2 1.1.35L24 4.05l1.6 1.9.1.3.2.35.1.4-.3 1.3-.2.5-.3.3-.25.15-1.8.15-.15-.05h-.1l-.6-.2-.15-.15-1.45 1.4.55 1.55q.25.85-.1 1.15l-1.55 1.6h-2.95l-5.4-5.35V6.4v2.95l5.4 5.35h2.95l-7.9 7.9-2.6 2.6-1.5.8-1.95-.1-.65-.45-.5-.3-3.65-3.7-.35-.55-.4-.6-.1-1.95.8-1.5 2.6-2.6 7.85-7.85M5 25.45l2.85-2.85-4.45-4.5-2.9 2.8 2.9-2.8v-3.85 3.85l4.45 4.5h3.85-3.85L5 25.45" fill="#ffffcb" fill-rule="evenodd" stroke="#f5cb5b" stroke-opacity=".298" stroke-linecap="round" stroke-linejoin="round"/></svg>

<?xml version="1.0" encoding="UTF-8" standalone="no"?>
<svg xmlns:xlink="http://www.w3.org/1999/xlink" height="26.0px" width="26.0px" xmlns="http://www.w3.org/2000/svg">
  <g transform="matrix(1.0, 0.0, 0.0, 1.0, 0.0, 0.0)">
    <path d="M11.25 6.4 L12.85 4.8 14.0 4.7 15.55 5.25 16.95 3.75 16.85 3.65 16.65 3.1 16.65 3.0 16.6 2.85 Q16.3 1.55 16.75 1.0 L16.9 0.75 17.2 0.45 17.6 0.2 18.95 0.0 20.05 0.35 24.0 4.05 25.6 5.95 25.7 6.25 25.9 6.6 26.0 7.0 25.7 8.3 25.5 8.8 25.2 9.1 24.95 9.25 23.15 9.4 23.0 9.35 22.9 9.35 22.3 9.15 22.15 9.0 20.7 10.4 21.25 11.95 Q21.5 12.8 21.15 13.1 L19.6 14.7 16.65 14.7 11.25 9.35 11.25 6.4 11.25 9.35 16.65 14.7 19.6 14.7 11.7 22.6 9.1 25.2 7.6 26.0 5.65 25.9 5.0 25.45 4.5 25.15 0.85 21.45 0.5 20.9 0.1 20.3 0.0 18.35 0.8 16.85 3.4 14.25 11.25 6.4 M5.0 25.45 L7.85 22.6 3.4 18.1 0.5 20.9 3.4 18.1 3.4 14.25 3.4 18.1 7.85 22.6 11.7 22.6 7.85 22.6 5.0 25.45" fill="#ffffcb" fill-rule="evenodd" stroke="#f5cb5b" stroke-opacity="0.29803923" stroke-width="1.0" stroke-linecap="round" stroke-linejoin="round"/>
  </g>
</svg>
